X:1
T:The Merchant's Only Son
M:6/8
L:1/8
K:C
 G| G2 G E2 G| c/2 c2- c/2 c2 E| F2 F/2G/2 G2 d| c3 z2 G| GGG E2 G|\
 c2 c c2 e| d2 G/2G/2 B d2| c3 z2 G| GGG E2 G| c2 c c2 e| d2 G B2 d|\
 c3 e2- d| c2 c G2 B| c2 c G/2- E3/2 C| F2 G G2 B| c3 z2||
